src/scalable/apps/bitmap2component.svg

<svg width="64" height="64" viewBox="0 0 64 64" fill="none" xmlns="http://www.w3.org/2000/svg">
<circle cx="32" cy="32" r="27" fill="#B9B9B9"/>
<path d="M11.2748 45.2729C11.1367 45.981 10.9433 47.4821 11.2748 47.8219H12.9322L29.0918 30.4036C28.4012 29.554 26.7714 27.5148 25.777 26.1553C24.534 24.4559 22.4622 24.4559 20.8048 25.7304C19.4789 26.75 13.899 39.1836 11.2748 45.2729Z" fill="#545454"/>
<path d="M35.9088 24.1394C34.8721 23.1027 34.2588 21.7276 34.2038 20.3166C34.1487 18.9056 34.6565 17.5742 35.6153 16.6153C36.5742 15.6565 37.9056 15.1487 39.3166 15.2038C40.7276 15.2588 42.1027 15.8721 43.1394 16.9088L39.5241 20.5241L35.9088 24.1394Z" fill="#545454"/>
<path fill-rule="evenodd" clip-rule="evenodd" d="M32 13H31V15H29V16H31V19H28H27H24H23H20H19H16H15H12H11V20V23V24V27V28V31V32V35V36V39V40V43V44V47V48H12H15H16H19H20H23H24H27H28H31H32H35H36H39H40V47V44V43V40V39V36V35V32V31V28H44V27H40V24H44V23H40V20H44V19H40V16H44V15H40V13H39V15H36V13H35V15H32V13ZM39 16H36V19H39V16ZM39 20H36V23H39V20ZM39 24H36V27H39V24ZM39 28H36V31H39V28ZM39 32H36V35H39V32ZM39 36H36V39H39V36ZM39 40H36V43H39V40ZM39 44H36V47H39V44ZM35 44V47H32V44H35ZM35 40V43H32V40H35ZM35 36V39H32V36H35ZM35 32V35H32V32H35ZM35 28V31H32V28H35ZM35 24V27H32V24H35ZM35 20V23H32V20H35ZM35 16V19H32V16H35ZM31 20H28V23H31V20ZM31 24H28V27H31V24ZM31 28H28V31H31V28ZM31 32H28V35H31V32ZM31 36H28V39H31V36ZM31 40H28V43H31V40ZM31 44H28V47H31V44ZM27 24V27H24V24H27ZM23 24V27H20V24H23ZM23 28H20V31H23V28ZM19 24V27H16V24H19ZM19 28H16V31H19V28ZM15 24V27H12V24H15ZM15 28H12V31H15V28ZM27 28H24V31L27 31V28ZM15 23H12V20H15V23ZM19 23H16V20H19V23ZM23 23H20V20H23V23ZM27 23H24V20H27V23ZM27 44V47H24V44H27ZM23 44V47H20V44H23ZM19 44V47H16V44H19ZM15 44V47H12V44H15ZM12 43H15V40H12V43ZM16 43H19V40H16V43ZM20 43H23V40H20V43ZM24 43H27V40H24V43ZM27 36V39H24V36H27ZM23 36V39H20V36H23ZM19 36V39H16V36H19ZM15 36V39H12V36H15ZM12 35H15V32H12V35ZM16 35H19V32H16V35ZM20 35H23V32H20V35ZM24 35H27V32L24 32V35Z" fill="#B9B9B9"/>
<path fill-rule="evenodd" clip-rule="evenodd" d="M44.8444 20.7316C44.7894 19.3206 44.1761 17.9454 43.1394 16.9088L39.5241 20.5241L35.9088 24.1394C36.9454 25.1761 38.3206 25.7894 39.7316 25.8444C41.1426 25.8995 42.474 25.3917 43.4329 24.4329C44.3917 23.474 44.8995 22.1426 44.8444 20.7316ZM30 31.5L35.6862 39.3219C36.5863 40.3545 37.1196 40.3856 38.107 39.3219L42.1418 35.0719C42.8272 34.278 43.1798 34.2897 43.7556 35.0719L51.4216 45.6969C52.5542 47.3546 52.3155 47.8334 50.2112 47.8219H14.3022H13.0918L30 31.5Z" fill="#1A81C4"/>
<path d="M10.5715 48.4285C11.1483 49.1796 11.7636 49.8996 12.4146 50.5854L50.5854 12.4146C49.8996 11.7636 49.1796 11.1483 48.4285 10.5715L10.5715 48.4285Z" fill="#3C3C3C"/>
</svg>

<svg xmlns="http://www.w3.org/2000/svg" width="64" height="64" fill="none"><circle cx="32" cy="32" r="27" fill="#B9B9B9"/><path fill="#545454" d="M11.275 45.273c-.138.708-.332 2.21 0 2.549h1.657l16.16-17.418c-.69-.85-2.32-2.89-3.315-4.249-1.243-1.7-3.315-1.7-4.972-.425-1.326 1.02-6.906 13.454-9.53 19.543ZM35.909 24.14c-1.037-1.037-1.65-2.412-1.705-3.823-.055-1.411.453-2.743 1.411-3.702.96-.958 2.29-1.466 3.702-1.411 1.41.055 2.786.668 3.822 1.705l-3.615 3.615-3.615 3.615Z"/><path fill="#B9B9B9" fill-rule="evenodd" d="M32 13h-1v2h-2v1h2v3H11v29h29V28h4v-1h-4v-3h4v-1h-4v-3h4v-1h-4v-3h4v-1h-4v-2h-1v2h-3v-2h-1v2h-3v-2Zm7 3h-3v3h3v-3Zm0 4h-3v3h3v-3Zm0 4h-3v3h3v-3Zm0 4h-3v3h3v-3Zm0 4h-3v3h3v-3Zm0 4h-3v3h3v-3Zm0 4h-3v3h3v-3Zm0 4h-3v3h3v-3Zm-4 0v3h-3v-3h3Zm0-4v3h-3v-3h3Zm0-4v3h-3v-3h3Zm0-4v3h-3v-3h3Zm0-4v3h-3v-3h3Zm0-4v3h-3v-3h3Zm0-4v3h-3v-3h3Zm0-4v3h-3v-3h3Zm-4 4h-3v3h3v-3Zm0 4h-3v3h3v-3Zm0 4h-3v3h3v-3Zm0 4h-3v3h3v-3Zm0 4h-3v3h3v-3Zm0 4h-3v3h3v-3Zm0 4h-3v3h3v-3Zm-4-20v3h-3v-3h3Zm-4 0v3h-3v-3h3Zm0 4h-3v3h3v-3Zm-4-4v3h-3v-3h3Zm0 4h-3v3h3v-3Zm-4-4v3h-3v-3h3Zm0 4h-3v3h3v-3Zm12 0h-3v3h3v-3Zm-12-5h-3v-3h3v3Zm4 0h-3v-3h3v3Zm4 0h-3v-3h3v3Zm4 0h-3v-3h3v3Zm0 21v3h-3v-3h3Zm-4 0v3h-3v-3h3Zm-4 0v3h-3v-3h3Zm-4 0v3h-3v-3h3Zm-3-1h3v-3h-3v3Zm4 0h3v-3h-3v3Zm4 0h3v-3h-3v3Zm4 0h3v-3h-3v3Zm3-7v3h-3v-3h3Zm-4 0v3h-3v-3h3Zm-4 0v3h-3v-3h3Zm-4 0v3h-3v-3h3Zm-3-1h3v-3h-3v3Zm4 0h3v-3h-3v3Zm4 0h3v-3h-3v3Zm4 0h3v-3h-3v3Z" clip-rule="evenodd"/><path fill="#1A81C4" fill-rule="evenodd" d="M44.844 20.732c-.055-1.411-.668-2.787-1.705-3.823l-3.615 3.615-3.615 3.615c1.036 1.037 2.412 1.65 3.823 1.705 1.41.055 2.742-.452 3.7-1.411.96-.959 1.468-2.29 1.412-3.701ZM30 31.5l5.686 7.822c.9 1.032 1.434 1.064 2.421 0l4.035-4.25c.685-.794 1.038-.782 1.614 0l7.666 10.625c1.132 1.658.894 2.136-1.21 2.125h-37.12L30 31.5Z" clip-rule="evenodd"/><path fill="#3C3C3C" d="M10.572 48.428a27.167 27.167 0 0 0 1.843 2.157l38.17-38.17a27.167 27.167 0 0 0-2.157-1.843L10.572 48.428Z"/></svg>
